X: 33565
T: Rakes Of Dromina, The
R: jig
M: 6/8
K: Gmajor
|:G2G ~g3|ecB A2B|GAB c2A|BGG ADE|
GAB ~g3|ecB A2B|BAB c2A|1 BGF G2(3D/E/F/:|2 BGG G2d||
|:ege e2g|efe ecB|ded e2f|gfe dcB|
cec B/c/dB|Aag ~f3|gdB dcA|1 BGF G2d:|2 BGF G2D||

